src/assets/icons/RabbitMQ.svg

<!DOCTYPE svg PUBLIC "-//W3C//DTD SVG 1.1//EN" "http://www.w3.org/Graphics/SVG/1.1/DTD/svg11.dtd">
<!-- Uploaded to: SVG Repo, www.svgrepo.com, Transformed by: SVG Repo Mixer Tools -->
<svg width="800px" height="800px" viewBox="-0.5 0 257 257" version="1.1" xmlns="http://www.w3.org/2000/svg" xmlns:xlink="http://www.w3.org/1999/xlink" preserveAspectRatio="xMidYMid" fill="#ffffff">
<g id="SVGRepo_bgCarrier" stroke-width="0"/>
<g id="SVGRepo_tracerCarrier" stroke-linecap="round" stroke-linejoin="round"/>
<g id="SVGRepo_iconCarrier"> <g> <path d="M245.733754,102.437432 L163.822615,102.437432 C161.095475,102.454639 158.475045,101.378893 156.546627,99.4504749 C154.618208,97.5220567 153.542463,94.901627 153.559669,92.174486 L153.559669,10.2633479 C153.559723,7.54730691 152.476409,4.94343327 150.549867,3.02893217 C148.623325,1.11443107 146.012711,0.0474632135 143.296723,0.0645452326 L112.636172,0.0645452326 C109.920185,0.0474632135 107.30957,1.11443107 105.383029,3.02893217 C103.456487,4.94343327 102.373172,7.54730691 102.373226,10.2633479 L102.373226,92.174486 C102.390432,94.901627 101.314687,97.5220567 99.3862689,99.4504749 C97.4578506,101.378893 94.8374209,102.454639 92.11028,102.437432 L61.4497286,102.437432 C58.7225877,102.454639 56.102158,101.378893 54.1737397,99.4504749 C52.2453215,97.5220567 51.1695761,94.901627 51.1867826,92.174486 L51.1867826,10.2633479 C51.203989,7.5362069 50.1282437,4.91577722 48.1998255,2.98735896 C46.2714072,1.05894071 43.6509775,-0.0168046317 40.9238365,0.000198540275 L10.1991418,0.000198540275 C7.48310085,0.000198540275 4.87922722,1.08366231 2.96472611,3.0102043 C1.05022501,4.93674629 -0.0167428433,7.54736062 0.000135896304,10.2633479 L0.000135896304,245.79796 C-0.0168672756,248.525101 1.05887807,251.14553 2.98729632,253.073949 C4.91571457,255.002367 7.53614426,256.078112 10.2632852,256.061109 L245.733754,256.061109 C248.460895,256.078112 251.081324,255.002367 253.009743,253.073949 C254.938161,251.14553 256.013906,248.525101 255.9967,245.79796 L255.9967,112.892808 C256.066222,110.132577 255.01362,107.462105 253.07944,105.491659 C251.14526,103.521213 248.4948,102.419191 245.733754,102.437432 Z M204.553817,189.4159 C204.570741,193.492844 202.963126,197.408658 200.08629,200.297531 C197.209455,203.186403 193.300387,204.810319 189.223407,204.810319 L168.697515,204.810319 C164.620535,204.810319 160.711467,203.186403 157.834632,200.297531 C154.957796,197.408658 153.350181,193.492844 153.367105,189.4159 L153.367105,168.954151 C153.350181,164.877207 154.957796,160.961393 157.834632,158.07252 C160.711467,155.183648 164.620535,153.559732 168.697515,153.559732 L189.223407,153.559732 C193.300387,153.559732 197.209455,155.183648 200.08629,158.07252 C202.963126,160.961393 204.570741,164.877207 204.553817,168.954151 L204.553817,189.4159 L204.553817,189.4159 Z" fill="#ffffff"> </path> </g> </g>
</svg>

<svg xmlns="http://www.w3.org/2000/svg" width="800" height="800" fill="#fff" preserveAspectRatio="xMidYMid" viewBox="-0.5 0 257 257"><path d="M245.734 102.437h-81.911a10.2 10.2 0 0 1-10.263-10.263v-81.91a10.2 10.2 0 0 0-10.263-10.2h-30.66a10.2 10.2 0 0 0-10.264 10.2v81.91a10.2 10.2 0 0 1-10.263 10.263H61.45a10.2 10.2 0 0 1-10.263-10.263v-81.91A10.2 10.2 0 0 0 40.924 0H10.199A10.2 10.2 0 0 0 0 10.263v235.535a10.2 10.2 0 0 0 10.263 10.263h235.47a10.2 10.2 0 0 0 10.264-10.263V112.893a10.2 10.2 0 0 0-10.263-10.456m-41.18 86.979a15.33 15.33 0 0 1-15.33 15.394h-20.526a15.33 15.33 0 0 1-15.33-15.394v-20.462a15.33 15.33 0 0 1 15.33-15.394h20.525a15.33 15.33 0 0 1 15.33 15.394z"/></svg>
